X:472
T:The Flower of Hokkaido
Z:Jack Campin, http://www.campin.me.uk/
F:Jack Campin's Nine-Note Tunebook
% last edit 03-02-2013
C:Sojiro
M:2/4
L:1/8
Q:1/4=120
K:DDor
.D.A .D.A|.D.A A/G/F/E/| FD  D/E/F|.G.F  E2 |
.D.A .D.A|.D.A A/G/F/E/| FD  D/E/F| EC   D2:|
 d2   c>c|.d.A F2      | G>A c>c  |.A.G .A.c|
 d2   c>c|.d.A F/G/A/G/|.F.D D/E/F|.E.C  D2:|


% == Scandinavian songs and dance tunes =====================================

